assets/images/c2.svg

<svg width="77" height="54" viewBox="0 0 77 54" fill="none" xmlns="http://www.w3.org/2000/svg">
<g clip-path="url(#clip0_38_13)">
<path d="M74.94 3.14999L74.81 3.04999C74.0115 2.11319 73.0199 1.36009 71.9032 0.842285C70.7864 0.324479 69.5709 0.0542072 68.34 0.0499878L8.58001 0.0499878C7.34918 0.0548683 6.13392 0.325435 5.01728 0.843196C3.90064 1.36096 2.90896 2.1137 2.11001 3.04999C2.07052 3.08008 2.03372 3.11354 2.00001 3.14999C0.714506 4.68743 0.0070174 6.62595 5.82802e-06 8.62999V44.45C-0.00130816 45.578 0.219578 46.6953 0.650052 47.738C1.08053 48.7807 1.71216 49.7284 2.50889 50.527C3.30561 51.3256 4.25183 51.9594 5.29352 52.3923C6.3352 52.8252 7.45195 53.0487 8.58001 53.05H68.34C70.6147 53.0473 72.7956 52.1425 74.4041 50.534C76.0126 48.9256 76.9174 46.7447 76.92 44.47V8.62999C76.9181 6.62504 76.21 4.68484 74.92 3.14999H74.94ZM74 8.62999V44.45C74.0003 45.1017 73.8852 45.7484 73.66 46.36L53.42 26.5L73.5 6.41999C73.8166 7.11452 73.9868 7.86681 74 8.62999ZM8.58001 50.05C7.29448 50.0524 6.04755 49.6108 5.05001 48.8L25.61 28.6L33.5 36.5C34.1504 37.1531 34.9234 37.6713 35.7745 38.0249C36.6257 38.3785 37.5383 38.5605 38.46 38.5605C39.3817 38.5605 40.2943 38.3785 41.1455 38.0249C41.9967 37.6713 42.7696 37.1531 43.42 36.5L51.32 28.6L71.88 48.81C70.8764 49.6158 69.6271 50.0534 68.34 50.05H8.58001ZM3.00001 44.45V8.62999C2.99745 7.87031 3.1506 7.11818 3.45001 6.41999L23.51 26.5L3.30001 46.36C3.08842 45.7459 2.98686 45.0993 3.00001 44.45ZM68.34 3.04999C69.5182 3.02518 70.6738 3.37536 71.64 4.04999L41.32 34.4C40.5595 35.1548 39.5315 35.5783 38.46 35.5783C37.3885 35.5783 36.3605 35.1548 35.6 34.4L5.29001 4.04999C6.25192 3.37423 7.40474 3.02383 8.58001 3.04999H68.34Z" fill="#E7E7E7"/>
</g>
<defs>
<clipPath id="clip0_38_13">
<rect width="76.92" height="52.98" fill="white" transform="translate(0 0.0499878)"/>
</clipPath>
</defs>
</svg>

<svg width="77" height="54" fill="none" xmlns="http://www.w3.org/2000/svg"><g clip-path="url(#clip0_38_13)"><path d="M74.94 3.15l-.13-.1a8.54 8.54 0 00-6.47-3H8.58a8.55 8.55 0 00-6.47 3 .859.859 0 00-.11.1 8.59 8.59 0 00-2 5.48v35.82a8.59 8.59 0 008.58 8.6h59.76a8.59 8.59 0 008.58-8.58V8.63a8.53 8.53 0 00-2-5.48h.02zM74 8.63v35.82a5.52 5.52 0 01-.34 1.91L53.42 26.5 73.5 6.42a5.56 5.56 0 01.5 2.21zM8.58 50.05a5.58 5.58 0 01-3.53-1.25l20.56-20.2 7.89 7.9a7 7 0 009.92 0l7.9-7.9 20.56 20.21a5.63 5.63 0 01-3.54 1.24H8.58zM3 44.45V8.63a5.56 5.56 0 01.45-2.21L23.51 26.5 3.3 46.36a5.52 5.52 0 01-.3-1.91zm65.34-41.4a5.56 5.56 0 013.3 1L41.32 34.4a4.06 4.06 0 01-5.72 0L5.29 4.05a5.51 5.51 0 013.29-1h59.76z" fill="#E7E7E7"/></g><defs><clipPath id="clip0_38_13"><path fill="#fff" transform="translate(0 .05)" d="M0 0h76.92v52.98H0z"/></clipPath></defs></svg>
